X:1
T:Martin Wynne's No. 3 (Dervish's setting)
S:Dervish, Midsummer's Night 1a
Z:Jerome S. Colburn <jscolbur@prairienet.org> irtrad-l 2000-9-14
M:C|
K:G
   dged BdAd | BGAG EA~A2 | B2dB cdeg |  fgaf ge~e2 |\
   dged BdAd | BGAG EA~A2 | B2dB cdeg |1 fdcA G2Bc :|2 fgaf g2ef ||
|: g2af gfeB | dged BGBc  | dggf gfeB |  dega bgaf |\
   gbaf gfeB | dged BGBc  | dggf gfed |1 fgaf ~g3d :|2 fgaf gfeB |]
